web/packages/design/src/ResourceIcon/assets/openid.svg

<svg width="72" height="72" viewBox="0 0 72 72" fill="none" xmlns="http://www.w3.org/2000/svg">
<g clip-path="url(#clip0_6971_33938)">
<path d="M32.7217 7.48858V62.0031V68.8408L43.6287 63.7073V2.16014L32.7217 7.48858Z" fill="#F8931E"/>
<path fill-rule="evenodd" clip-rule="evenodd" d="M30.8067 29.2666C19.3283 31.2533 10.9071 37.7618 10.9071 45.4901C10.9071 53.6428 20.2749 60.4427 32.7212 62.0031V68.8408C14.2218 67.2051 0 57.3751 0 45.4901C0 34.0186 13.2497 24.461 30.8067 22.3389V29.2666ZM45.5428 29.2666V22.3416C52.9981 23.2427 59.6784 25.4811 64.8953 28.6416L70.4945 25.4847L72 41.1172L50.9074 36.5281L56.8201 33.1945C53.6706 31.3702 49.8177 30.0064 45.5428 29.2666Z" fill="#B3B3B3"/>
</g>
<defs>
<clipPath id="clip0_6971_33938">
<rect width="72" height="72" fill="white"/>
</clipPath>
</defs>
</svg>

<svg xmlns="http://www.w3.org/2000/svg" width="72" height="72" fill="none" viewBox="0 0 72 72"><g clip-path="url(#a)"><path fill="#f8931e" d="M32.722 7.489V68.84l10.907-5.134V2.16z"/><path fill="#b3b3b3" fill-rule="evenodd" d="M30.807 29.267c-11.479 1.986-19.9 8.495-19.9 16.223 0 8.153 9.368 14.953 21.814 16.513v6.838C14.221 67.205 0 57.375 0 45.49c0-11.472 13.25-21.03 30.807-23.152zm14.736 0v-6.925c7.455.9 14.135 3.14 19.352 6.3l5.6-3.157L72 41.117l-21.093-4.589 5.913-3.334c-3.15-1.824-7.002-3.188-11.277-3.927" clip-rule="evenodd"/></g><defs><clipPath id="a"><path fill="#fff" d="M0 0h72v72H0z"/></clipPath></defs></svg>
